icons/hexagon-arrow-left-outline.svg

<svg xmlns="http://www.w3.org/2000/svg" width="24" height="24" viewBox="0 0 24 24">
  <path d="M16.3174576,1 C17.4115312,1 18.4188507,1.59559898 18.9461053,2.55424375 L18.9461053,2.55424375 L23.3461053,10.5542438 C23.8412416,11.4544917 23.8412416,12.5455083 23.3461053,13.4457562 L23.3461053,13.4457562 L18.9461053,21.4457562 C18.4188507,22.404401 17.4115312,23 16.3174576,23 L16.3174576,23 L7.68254244,23 C6.58846875,23 5.58114934,22.404401 5.05389472,21.4457562 L5.05389472,21.4457562 L0.653894716,13.4457562 C0.158758351,12.5455083 0.158758351,11.4544917 0.653894716,10.5542438 L0.653894716,10.5542438 L5.05389472,2.55424375 C5.58114934,1.59559898 6.58846875,1 7.68254244,1 L7.68254244,1 Z M16.3174576,3 L7.68254244,3 C7.31785121,3 6.98207807,3.19853299 6.80632653,3.51808125 L6.80632653,3.51808125 L2.40632653,11.5180813 C2.24128108,11.8181639 2.24128108,12.1818361 2.40632653,12.4819187 L2.40632653,12.4819187 L6.80632653,20.4819187 C6.98207807,20.801467 7.31785121,21 7.68254244,21 L7.68254244,21 L16.3174576,21 C16.6821488,21 17.0179219,20.801467 17.1936735,20.4819187 L17.1936735,20.4819187 L21.5936735,12.4819187 C21.7587189,12.1818361 21.7587189,11.8181639 21.5936735,11.5180813 L21.5936735,11.5180813 L17.1936735,3.51808125 C17.0179219,3.19853299 16.6821488,3 16.3174576,3 L16.3174576,3 Z M6.00054244,12.018 L6,12 L6.0001833,11.9806591 L6.0017331,11.9409686 L6.0017331,11.9409686 L6.00397748,11.9101982 C6.00574796,11.8903051 6.00810098,11.8705796 6.0110178,11.8515331 C6.01362808,11.834051 6.01670217,11.8166247 6.02016515,11.7992059 C6.0246398,11.7772539 6.02983363,11.7555635 6.03584514,11.734007 C6.04017413,11.7182588 6.04489522,11.7025958 6.04987089,11.6872762 C6.0559003,11.6689468 6.06244532,11.6508514 6.06938695,11.6333026 C6.07731015,11.613165 6.08591191,11.5932325 6.09550623,11.5729619 C6.1040443,11.5549095 6.1131069,11.5371537 6.12234168,11.5201698 C6.12986112,11.5064305 6.13772719,11.4928304 6.14606743,11.4793398 C6.15891923,11.4583066 6.17252629,11.4377852 6.1864634,11.4182204 L6.1864634,11.4182204 L6.21660919,11.3784075 C6.21763261,11.3771194 6.21865914,11.3758339 6.21968877,11.374551 L6.21968877,11.374551 L6.22354244,11.369 L6.2366872,11.3538862 L6.2366872,11.3538862 L6.29289322,11.2928932 L9.94974747,7.63603897 L10.0439548,7.55285036 C10.436246,7.24782547 11.0034771,7.27555501 11.363961,7.63603897 C11.7544853,8.02656326 11.7544853,8.65972824 11.363961,9.05025253 L11.363961,9.05025253 L9.414,10.9991458 L17,11 L17.1166211,11.0067277 C17.6139598,11.0644928 18,11.4871642 18,12 C18,12.5522847 17.5522847,13 17,13 L17,13 L9.414,12.9991458 L11.363961,14.9497475 L11.4471496,15.0439548 C11.7521745,15.436246 11.724445,16.0034771 11.363961,16.363961 C10.9734367,16.7544853 10.3402718,16.7544853 9.94974747,16.363961 L9.94974747,16.363961 L6.29289322,12.7071068 L6.21968877,12.625449 C6.21739784,12.6225945 6.21512226,12.6197272 6.20970461,12.6128994 L6.20970461,12.6128994 L6.19006311,12.5866395 C6.17541687,12.5664533 6.16150681,12.5456983 6.14789148,12.5238 C6.13863517,12.5087703 6.12981337,12.4935488 6.12179647,12.4786822 C6.11185933,12.4604898 6.10247102,12.4419547 6.09367336,12.4232215 C6.08567905,12.4060985 6.07819642,12.3887956 6.07110396,12.3710585 C6.06331574,12.3515792 6.05612249,12.3317977 6.04973809,12.3121425 C6.04472872,12.2968513 6.04009773,12.2814633 6.03572097,12.2658396 C6.02983363,12.2444365 6.0246398,12.2227461 6.02024007,12.2007258 C6.01671819,12.1834538 6.01365592,12.1661068 6.01101934,12.1489612 L6.01101934,12.1489612 L6.00254244,12.075 L6.00272635,12.0740195 L6.00054244,12.018 Z"/>
</svg>

<svg xmlns="http://www.w3.org/2000/svg" viewBox="0 0 24 24">
  <path d="M16.32 1a3 3 0 0 1 2.63 1.55l4.4 8c.5.9.5 2 0 2.9l-4.4 8A3 3 0 0 1 16.32 23H7.68a3 3 0 0 1-2.63-1.55l-4.4-8a3 3 0 0 1 0-2.9l4.4-8A3 3 0 0 1 7.68 1zm0 2H7.68a1 1 0 0 0-.87.52l-4.4 8a1 1 0 0 0 0 .96l4.4 8a1 1 0 0 0 .87.52h8.64a1 1 0 0 0 .87-.52l4.4-8a1 1 0 0 0 0-.96l-4.4-8a1 1 0 0 0-.87-.52zM6 12.02v-.11a.94.94 0 0 1 .1-.34 1.06 1.06 0 0 1 .09-.15l.03-.04v-.01l.02-.02.05-.06 3.66-3.65.1-.09a1 1 0 0 1 1.31 1.5L9.41 11h7.71a1 1 0 0 1-.12 2H9.41l1.95 1.95.09.1a1 1 0 0 1-1.5 1.31l-3.66-3.65-.07-.08-.01-.02-.02-.02a1.05 1.05 0 0 1-.17-.39v-.05L6 12.07v-.05z"/>
</svg>
